X: 55
M: C|
L: 1/16
K: F
c2 |\
f3g f3c f3af3c | d3gg3f eg3 g2ag |\
f3af3c f3Bf3A | B3Gc3B AF3F3c |
fg3 f3c  f3af3c | d3gg3f eg3 g2ag |\
fga2 gab2 agf2 gfe2 | f2ed cBAG AF3F2 H|]

